X: 25616
T: Marquiss Of Carmarthen's Birthday
R: hornpipe
M: 4/4
K: Dmajor
D2 F2 F4|F2 A2 A4|d2 f4 ed|edcB A4|
D2 F2 F4|F2 A4 d2|{d}c2 BA B2 ^G2|A4 A,4:|
a2 A4 a2|g2 A4 g2|f2 gf e2 d2|c2 Bc A4|
d2 D4 B2|A2 D4 f2|{f}e2 d2 e2 c2|d4 D4:|

